!!!!SEGMENT: pl-cz--ii-87--004-005_hepner--msza-st-offertorium.krn
!!!cenid: 18xx:1192
!!!COM: Hepner
!!!COM-rismID: pe30021002
!!!CDT: ~1800-~1899
!!!CNT:
!!!OPR: Msza St.
!!!OTL: Offertorium
!!!OMV: 005
!!!PDT: 1888
!!!AGN: Sacred; Mass
!!!SMS-siglum: PL-CZ
!!!SMS-shelfmark: II-87
!!!SMS-shelfwork: 004-005 M
!!!SMS-variant:
!!!SMS-altvar:
!!!NIFC-rismSourceID: 300033227
!!!NIFC-islandoraID: pl-cz:33881
!!!URL-pdf-islandora: https://repozytorium.nifc.pl/islandora/object/pl-cz%3A33881/datastream/PDF/view
!!!URL-scan:
!!!ONB-nifc: UWAGA: części Mszy: Kirie, Gloria, Graduale, Credo, Offertorium, Sanctus, Benedictus, Agnus, Communio, Benedicio
!!!AIN: 1 organ
!!!key: F
!!!OMD: Andante
**kern	**kern	**text
*part1	*part1	*part1
*staff2	*staff1	*staff1
*ICklav	*ICklav	*
*IGacmp	*IGacmp	*
*Iorgan	*Iorgan	*
*I"	*I"	*
*clefF4	*clefG2	*
*k[b-]	*k[b-]	*
*F:	*F:	*
*M4/4	*M4/4	*
*met(c)	*met(c)	*
=1	=1	=1
[1F [1FF	2a 2f/	.
.	4a 4f/	.
.	4bn 4g#X/	.
=2	=2	=2
*	*^	*
1F] 1FF]	2cc 2a/	4f\	.
.	.	4en\	.
.	4dd 4b- 4g 4f 4d/	2ryy	.
.	4een 4cc 4b- 4g 4f\	.	.
*	*v	*v	*
=3	=3	=3
4F 4FF/	4.ff 4.cc 4.a 4.f\	.
4r	.	.
.	8cc 8g 8e/	.
4BB-/	8ccL 8e/	.
.	8bn/	.
4r	8b-X/	.
.	8eJ 8d 8B-/	.
=	=	=
4F\	2g 2c/	.
4E 4C\	.	.
8FF/	8f 8A/	.
8r	8r	.
=4||	=4||	=4||
4r	8aL 8f\	Przyj-
.	8b-\J	-mij
!!LO:LB:g=original
=5	=5	=5
4F\	4cc 4a\	od
4FF/	4cc 4a\	nas
4F\	4.dd 4.b-\	przyj-
4FF/	.	.
.	8cc 8a\	-mij
=6	=6	=6
4c\	(8ccL 8a\	Pa-
.	8b-J 8g\)	.
4C/	4b- 4g\	-nie
4c\	4r	.
4C/	8b-L 8g/	tęn
.	8aJ 8f/	o-
=7	=7	=7
4C/	4g 4e/	-fia-
4c\	4g 4e/	-rę
4C\	4a 4f/	chle-
4c\	4a 4f/	-ba
=8	=8	=8
4E\	4b- 4g 4c/	wi-
4F\	4a 4f 4c/	-na
4FF/	4r	.
4r	8aL 8f/	co
.	8b-J 8g/	się
=9	=9	=9
4FF/	4cc 4a\	blis-
4F\	4cc 4a\	-kim
4D\	4dd 4a 4f#X\	cu-
4F#X\	4cc 4d/	-dem
!!LO:LB:g=original
=10	=10	=10
4G\	8ccL 8a/	sta-
.	8b-J 8g/	-nie
4GG/	4b- 4g/	krwią
4G\	4r	.
4E\	4b- 4g 4c/	i
=11	=11	=11
4F\	4a 4f 4c/	cia-
8F\L	4a 4f 4c/	-łem
8E\J	.	.
4F\	4bn 4g 4f 4d/	Twe-
4G\	4b 4g 4f 4d/	-go
=12	=12	=12
4C\	2.cc 2.g 2.e/	Syna
8E\L	.	.
8G\J	.	.
4c\	.	.
4r	8.b-L 8.g 8.e/	przyj-
.	16aJk 16f/	-mij
=13	=13	=13
4C 4CC/	4b- 4g/	ją
4r	8.ccL 8.a/	Pa-
.	16b-Jk 16g/	.
4C 4CC/	4g 4e/	-nie
4r	8.b-L 8.g/	z
.	16aJk 16f/	dłon
=14	=14	=14
4C 4CC/	8aL 8f/	ka-
.	8gJ 8e/	-pła-
4C/	4g 4e/	-skich
4C 4CC/	4r	.
4r	8gL 8e/	nie-
.	8gJ 8e/	-chaj
!!LO:LB:g=original
=15	=15	=15
4c 4C\	4a-X 4f/	na-
4c 4C\	4a- 4f/	-sze
4c 4C\	4a- 4f/	grze-
4c 4C\	4a- 4f/	-chy
=16	=16	=16
4c 4C\	8a-XL 8f/	sci-
.	8gJ 8e/	.
4c 4C\	4g 4e/	-na
4c 4C\	4r	.
4r	8f/L	zwra-
.	8g/J	.
=17	=17	=17
4G\	4a/	-ca
4E-X\	4a 4f/	do
4D\	4b- 4g/	cnot
4AA/	4cc 4f/	chrzeci-
=18	=18	=18
4BB-/	4dd 4f/	-an-
2Bn 2BBn\	2dd 2a-X 2f\	-skich
4B 4BB\	4dd 4a- 4f\	i
=19	=19	=19
2c 2C\	4.cc 4.a 4.f/	dro-
.	8g 8e/	-gęn
2C/	4.b- 4.g 4.e/	nie-
.	8f 8A/	-bios
!!LO:LB:g=original
=20	=20	=20
*	*^	*
[1F [1FF	2a/	1c 1A	otwie-
.	2e-X;/	.	-ra.
=21||	=21||	=21||	=21||
(>1F] 1FF_	2d/	1B-	.
.	2d-X/	.	.
*	*v	*v	*
=22	=22	=22
*^	*	*
4c 4A/	1FF])	1r	.
4Bn 4G#X/	.	.	.
4c 4A/	.	.	.
4Bn 4Gn/	.	.	.
*v	*v	*	*
=23	=23	=23
!LO:TX:a:t=Finis	!	!
1A 1F 1FF;	1ryy	.
==	==	==
*-	*-	*-
!!!system-decoration: (s1,s2)
!!!RDF**kern: > = above
!!!ENC: Tomasz Grochalski
!!!END: 2020-11-07
!!!ENC: Marta Lawrence
!!!END: 2021-11-15
!!!YEC: Copyright 2022 Narodowy Instytut Fryderyka Chopina (https://polishscores.org)
!!!YEM: Licence CC BY 4.0 (https://creativecommons.org/licenses/by/4.0)
